X: 192104
T: Susan's Den
C: Joe Liddy
Z: BB
S: "The Leitrim Fiddler" (Dublin 1981)
L: 1/8
M: 4/4
R: reel
Q: 1/4 = 180
K: D
FE | DB,A,B, DEFA | B2 AF ABde | fd d2 edBc | dBAF E2 FE |
DB,A,B, DEFA | B2 AF ABde | fded Bdfe | dBAF D2 :|
FG | Ad d2 Adfd | adfd edBA |dBAF DEFA | dBAF E2 FG |
[1 Ad d2 Adfd | adfd edBd | fded Bdfe | dBAF D2 :|
[2 Ad d2 Adfa | bfaf gfed | BdAd fded | BdAF D4 ||
%%%%%%%%%%%%%%%%%%
